X: 43002
T: Willow Kishie, The
R: reel
M: 4/4
K: Dmajor
A,2|D3F ADFA|dcdB AFDF|EDEF GFGA|BdcB AFEF|
D3F ADFA|dcdB AFDF|GFGA BdAG|1 FEDC D2:|2 FEDC D2c2||
d2fd Adfd|Adfd AFDB|=c2ec GE=C2|EDEG =cGE^c|
d2fd Adfd|Adfd AFDF|GFGA BdAG|FEDC D2c2|
d2fd Adfd|Adfd AFDB|=c2ec GE=C2|EDEG =cGE^C|
D3F ADFA|dcdB AFDF|GFGA BdAG|FEDC D2||

